X:1
T:Title
%%score { 1 | 2 }
L:1/8
M:4/4
K:Db
V:1 treble nm="Grand Piano"
V:2 bass 
V:1
 z4 z2[Q:1/4=92] [DF][EG] | [FA][FA][_F=G][=FA] [_GB][FA][DF][Fd] | [Gc]2 c2 c2 EF | %3
 [EG][=DF][EG][FA] BB c>B | [FA]6 [DF][EG] | [FA][FA][_F=G][=FA] [_GB][FA][DF][Fd] | %6
 [Gc]2 c2 c2 cd | eeed c<A Bc |[M:3/4] [Fd]2 [Gd]2 [Fd]2 |[M:1/4] [Fd][FB] | %10
[M:4/4] [Gc]2 c2 c2 Bc | [Fd]2 [DF]2 [FA]4 | GFGE F[DFA] z2 | %13
[M:9/8] [D=GB][DGB][EGc] [Gd] [_Ge]2- [Ge][Fd][FB] |[M:3/4] [Gc]2 c2 c2 |[M:1/4] Bc | %16
[M:4/4] d2 d2 d4 | edcB d<A =GA |[M:3/4] [=GB]2 [_Gc]2 [Fd]2 |] %19
V:2
 z4 z2 [D,A,][D,A,] | [D,D][D,D][D,D][D,D] [D,D][D,D][D,A,][D,A,] | %2
 [E,A,]2[K:treble] [A,EG]2 [A,EG]2[K:bass] [A,C][A,D] | %3
 [A,,A,][A,,A,][A,,A,][A,,A,][K:treble] [A,CG][A,CG] [A,EG]>[A,CG] | [D,D]6 [D,A,][D,A,] | %5
 [D,D][D,D][D,D][D,D] [D,D][D,D][D,A,][D,A,] | [E,A,]2[K:treble] [A,EG]2 [A,EG]2 [A,EG][A,DF] | %7
 [A,CG][A,CG][A,CG][A,DF] [A,EG]<[A,CG] [A,DG][A,G] |[M:3/4][K:bass] [D,A,]2 [D,B,]2 [D,A,]2 | %9
[M:1/4] [D,A,][D,A,] |[M:4/4] [E,A,]2[K:treble] [A,EG]2 [A,EG]2 [A,DG][A,G] | %11
 [D,A,]2 [D,A,]2 [D,D]4 | [A,CE][A,_C=D][A,=CE][A,C] [D,A,_D]D,[K:treble]fa | %13
[M:9/8][K:bass] E,E,E, [E,B,] [A,C]2- [A,C][D,A,][D,A,] | %14
[M:3/4] [E,A,]2[K:treble] [A,EG]2 [A,EG]2 |[M:1/4] [A,EG][A,EG] | %16
[M:4/4] [B,DF]2 [A,_CF]2 [G,B,G]4 | [G,B,G][G,B,G][=G,B,_F][G,DF] [A,D=F]<[A,DF] [=A,D_F][_A,D=F] | %18
[M:3/4][K:bass] [E,D]2 [A,E]A, [D,A,]2 |] %19

